**kern
*part1
*staff1
*clefC1
*k[f#c#]
1%0r
=2
1%0r
=3
1%0r
=4
1%0r
=5
1%0r
=6
1%0r
=7
1%0r
=8
1%0r
=9
4b
16ff#yL
16ddJ
16cc#yL
16bJ
8gg
8gg
8gg
8gg
=10
8gg
4ff#y
8ee
16ddL
16cc#y
16dd
16eeJ
16ff#yL
16ee
16ff#y
16ggJ
=11
8.ff#yL
32gg
32ff#yJ
8ee
8dd
8dd
8cc#y
4r
=12
*-
